icons/linear-new-symbol-check-double.svg

<svg xmlns="http://www.w3.org/2000/svg" width="32px" height="32px" viewBox="0 0 32 32" version="1.1">
    <title>linear-new-symbol-check-double</title>
    <g id="linear-new-symbol-check-double" stroke-width="1" fill-rule="evenodd">
        <path d="M23.7071068,8.29289322 C24.0976311,8.68341751 24.0976311,9.31658249 23.7071068,9.70710678 L10.7071068,22.7071068 C10.3165825,23.0976311 9.68341751,23.0976311 9.29289322,22.7071068 L2.29289322,15.7071068 C1.90236893,15.3165825 1.90236893,14.6834175 2.29289322,14.2928932 C2.68341751,13.9023689 3.31658249,13.9023689 3.70710678,14.2928932 L10,20.585 L22.2928932,8.29289322 C22.6834175,7.90236893 23.3165825,7.90236893 23.7071068,8.29289322 Z M30.7071068,8.29289322 C31.0976311,8.68341751 31.0976311,9.31658249 30.7071068,9.70710678 L17.7071068,22.7071068 C17.3165825,23.0976311 16.6834175,23.0976311 16.2928932,22.7071068 L14.914,21.329 L16.329,19.914 L17,20.585 L29.2928932,8.29289322 C29.6834175,7.90236893 30.3165825,7.90236893 30.7071068,8.29289322 Z M10.7071068,14.2928932 L12.086,15.671 L10.671,17.086 L9.29289322,15.7071068 C8.90236893,15.3165825 8.90236893,14.6834175 9.29289322,14.2928932 C9.68341751,13.9023689 10.3165825,13.9023689 10.7071068,14.2928932 Z" id="&#24418;&#29366;" fill-rule="nonzero" />
    </g>
</svg>

<svg xmlns="http://www.w3.org/2000/svg" viewBox="0 0 32 32"><path fill="currentColor" d="M23.707 8.293a1 1 0 0 1 0 1.414l-13 13a1 1 0 0 1-1.414 0l-7-7a1 1 0 0 1 1.414-1.414L10 20.585 22.293 8.293a1 1 0 0 1 1.414 0m7 0a1 1 0 0 1 0 1.414l-13 13a1 1 0 0 1-1.414 0l-1.379-1.378 1.415-1.415.671.671L29.293 8.293a1 1 0 0 1 1.414 0m-20 6 1.379 1.378-1.415 1.415-1.378-1.379a1 1 0 0 1 1.414-1.414"/></svg>
